X:1
T:Benedicam Dominum
T:Leon Leoni
T:Benedicam Dominum
C:Leon Leoni
%%score [ 1 2 ] { 3 | 4 }
L:1/8
Q:1/4=108
M:4/4
K:F
V:1 alto1 nm="Cantus 1" snm="C 1"
V:2 alto1 nm="Cantus 2" snm="C 2"
V:3 treble nm="Partitura" snm="Part."
V:4 bass 
V:1
 x8 | z2 z2 z2 x2 | A6 A2 | A4 G4 | F4 F4 | E8 | c6 c2 | c4 B4 | A4 A4 | G4 c4 | B3 A/G/FGAF | %11
w: ||Be- ne-|di- cam|Do- mi-|num,|Be- ne-|di- cam|Do- mi-|num in|om- * * * * * *|
 G2 E2 FEFD | E2 F4 E2 | F4 z4 | z8 | z8 | z4 G4 | AGAF G2 E2 | FEFD E4 | D4 C3 c | B2 A2 G3 G | %21
w: * ni tem- * * *|* * po-|re,|||in|om- * * * * ni|tem- * * * *|po- re, in|om- ni tem- po-|
 A4 z2 A2- | AA c2 =B4 | c3 G G2 B2 | A4 G4 | z8 | z2 A2 c2 c2 | =B4 A2 E2 | ^FGAF G3 =F | %29
w: re, sem-|* per laus e-|ius in o- re|me- o,||in o- re|me- o, in|o- * * * * *|
 E2 D2 ^C4 | D8 | z2 A2 A3 A | A2 B2 A3 A | A2 B3 B A2 | G2 F2 G4 | A6 c2 | c3 c c2 d2 | %37
w: * re me-|o.|In Do- mi-|no lau- da- bi-|tur a- ni- ma|me- * *|a, In|Do- mi- no lau-|
 c3 c c2 c2 | A2 B2 G4 | A8 | G6 G2 | G4 G2 G2 | A8 | G8 |!p! FEFG A4 | z2!f! F2 E4 | D4 z4 | %47
w: da- bi- tur a-|ni- ma me-|a,|Au- di-|ant man- su-|e-|ri|et _ _ _ _|læ- ten-|tur,|
 z4!p! EDEF | G4 z2!f! E2 | D4 C4 | z8 | AGAB c4 | z2!p! A2 GFGE | F4 z4 | z4 z2!f! c2 | c2 c2 c4 | %56
w: et _ _ _|_ læ-|ten- tur,||et _ _ _ _|læ- ten- * * *|tur.|Ma-|gni- fi- ca-|
 d2 c3 c B2 | A8 | A4 d4 | d4 c4 | B4 A4 | FGAB c2 BA | G2 A2 G4 | A4 F4- | F2 _E2 D4 | E4 z2 c2- | %66
w: te Do- mi- num|me-|cum et|e- xal-|te- mus|no- * * * * * *|* men e-|ius in|_ id- i-|psum, in|
 c2 A2 G4 | F2 A4 A2 | BABc d4 | !fermata!c8 |] %70
w: _ id- i-|psum, in id-|i- * * * *|psum.|
V:2
 x8 | z2 z2 z2 x2 | z8 | z8 | z8 | z8 | A6 A2 | A4 G4 | F4 F4 | E8 | z8 | z8 | c4 B3 A/G/ | %13
w: ||||||Be- ne-|di- cam|Do- mi-|num|||in om- * *|
 AGAF G2 E2 | FEFDEDEC | D2 E2 D3 D | E8 | z4 G4 | AGAF G2 E2 | FEFDEDEC | DE F4 E2 | F8 | z8 | %23
w: * * * * * ni|tem- * * * * * * *|* * * po-|re,|in|om- * * * * ni|tem- * * * * * * *|* * * po-|re,||
 z2 E3 E G2 | ^F4 G2 D2 | F2 F2 E4 | D3 F G2 A2 | ^G4 A4 | z2 A2 B2 B2 | A3 G/F/ E4 | ^F8 | %31
w: sem- per laus|e- ius in|o- re me-|o, in o- re|me- o,|in o- re|me- * * *|o.|
 z2 F2 F3 F | F2 G2 F3 F | F2 D3 E F2 | E2 F4 E2 | F6 A2 | A3 A A2 B2 | A3 A A2 G2 | F2 F2 E4 | %39
w: In Do- mi-|no lau- da- bi-|tur a- ni- ma|me- * *|a, In|Do- mi- no lau-|da- bi- tur a-|ni- ma me-|
 F8 | E6 E2 | E4 D2 E2 | F8- | F4 E4 | z4!p! FEFG | A4 z4 | z2!f! F2 E4 | D4 z4 |!p! EDEF G4 | %49
w: a,|Au- di-|ant man- su-|e-|* ri|et _ _ _|_|læ- ten-|tur,|et _ _ _ _|
 z4 z2!f! E2 | D4 C4 | z4 AGAB | c4 z4 | z2!p! A2 GFGE | F4 z2 A2 | A2 A2 A4 | B2 A3 A G2 | F8 | %58
w: læ-|ten- tur,|et _ _ _|_|læ- ten- * * *|tur. Ma-|gni- fi- ca-|te Do- mi- num|me-|
 ^F4 B4 | B4 A4 | G4 F4 | DEFG A3 G/F/ | E2 F2 E4 | F4 D4- | D2 C2 =B,4 | C2 c4 A2 | G2 F4 E2 | %67
w: cum et|e- xal-|te- mus|no- * * * * * *|* men e-|ius in|_ id- i-|psum, in id-|i- * *|
 F4 z2 F2- | F2 F2 B4 | A8 |] %70
w: psum, in|_ id- i-|psum.|
V:3
 x8 | z2 z2 z2 x2 | [CF]8 | F4 C4 | [A,D]8 | [G,CE]8 | [CF]8 | [CF]4 [B,D]4 | [A,C]4 [B,D]4 | %9
 [CE]8 | F2 G2 A4 | [EG]4 [DF]4 | C4 B,4 | [A,F]4 [CE]4 | [DA]4 [CG]4 | B,2 C4 =B,2 | [CEG]8 | C8 | %18
 [DA]4 [CG]4 | [B,D]4 [A,C]4 | D2 C2 [CG]4 | [CF]8- | [CF]4 [DG]4 | [CEG]6 [DG]2 | [DA]4 [DG]4 | %25
 [DA]4 [CE]4 | [DA]4 [CEG]2 [CEA]2 | E4 [EA]4 | [D^F]4 [DG]4 | [A,E]8 | [DA]8 | D8 | D8 | D6 C2 | %34
 C8 | F8 | F8 | F8 | D4 E4 | F8 | [CEG]8- | [CEG]4 G4 | [CF]8 | [CG]8 | z8 | z2 A2 c4 | A2 A2 c4 | %47
 A4 z4 | z4 z2 c2 | =B4 c2 c2 | =B4 c4 | z8 | z8 | z8 | z4 z2 [FAc]2 | [FAc]2 [FAc]2 [FAc]4 | %56
 [FBd]2 [FAc]3 [FAc] [DGB]2 | [DFA]8 | D4 G4 | B4 F4 | G4 D4 | F4 F4 | [CEG]2 [CFA]2 G2 E2 | %63
 [CF]4 [DFB]4 | [DFG]2 [C_EG]2 [=B,DG]4 | [EG]4 [EA]4 | F4 G4 | [CFA]6 [DFA]2 | Bcdc B4 | [CFA]8 |] %70
V:4
 x8 | z2 z2 z2 x2 | F,6 F,2 | F,4 E,4 | D,4 D,4 | C,8 | F,,6 F,,2 | F,,4 G,,4 | A,,4 B,,4 | %9
 C,4 C,4 | D,2 E,2 F,4 | C,4 B,,4 | A,,4 G,,4 | F,,4 C,4 | D,4 C,4 | B,,2 C,2 G,,3 G,, | C,8 | %17
 F,4 E,4 | D,4 C,4 | B,,4 A,,4 | G,,2 F,,2 C,4 | F,,6 F,2- | F,F, C,2 G,4 | C,2 C,3 C, G,,2 | %24
 D,4 G,,3 G, | F,2 D,2 A,,4 | D,2 D,2 C,2 A,,2 | E,4 A,,2 A,,2 | D,4 G,,4 | A,,8 | D,8 | %31
 z2 D,2 D,3 D, | D,2 G,,2 D,3 D, | D,2 B,,3 B,, F,,2 | C,8 | F,,6 F,2 | F,3 F, F,2 B,,2 | %37
 F,3 F, F,2 C,2 | D,2 B,,2 C,4 | F,,8 | C,6 C,2 | C,4 =B,,2 C,2 | F,,8 | C,8 | F,8 | F,2 D,2 A,,4 | %46
 D,2 D,2 A,,4 | D,4 C,4 | C,6 C,2 | G,,4 C,2 C,2 | G,,4 C,4 | F,8 | F,2 F,2 C,4 | F,2 F,,2 C,4 | %54
 F,,4 z2 F,2 | F,2 F,2 F,4 | B,,2 F,3 F, G,2 | D,8 | D,4 B,,4 | B,,C,D,E, F,2 F,,2 | %60
 G,,A,,B,,C, D,4 | D,4 A,,2 B,,2 | C,8 | F,,4 B,,2 F,,2 | G,,8 | C,8- | C,8 | F,6 D,2 | B,,8 | %69
 F,,8 |] %70

